icon-themes/breeze_svg/cmd/lc_definedbname.svg

<svg viewBox="0 0 24 24" xmlns="http://www.w3.org/2000/svg"><path d="m4 4v4 12h6v-12h10v-4zm1 1h4v2h-4zm5 0h4v2h-4zm5 0h4v2h-4zm-10 3h4v2h-4zm7 2v10h1v-3l3-1v1l5-1-2-1 2-1-5-2v-1l-3-1zm-7 1h4v2h-4zm0 3h4v2h-4zm0 3h4v2h-4z" fill="#4d4d4d"/></svg>

<svg viewBox="0 0 24 24" xmlns="http://www.w3.org/2000/svg">
  <path
     style="fill:#4d4d4d"
     d="M 4 4 L 4 8 L 4 20 L 10 20 L 10 8 L 20 8 L 20 4 L 4 4 z M 5 5 L 9 5 L 9 7 L 5 7 L 5 5 z M 10 5 L 14 5 L 14 7 L 10 7 L 10 5 z M 15 5 L 19 5 L 19 7 L 15 7 L 15 5 z M 5 8 L 9 8 L 9 10 L 5 10 L 5 8 z M 12 10 L 12 20 L 13 20 L 13 17 L 16 16 L 16 17 L 21 16 L 19 15 L 21 14 L 16 12 L 16 11 L 13 10 L 12 10 z M 5 11 L 9 11 L 9 13 L 5 13 L 5 11 z M 5 14 L 9 14 L 9 16 L 5 16 L 5 14 z M 5 17 L 9 17 L 9 19 L 5 19 L 5 17 z "
     />
</svg>
